X:387
T:John MacFadyen of Melfort 
C:Joe Buchanan's Scottish Tome - Page 342.0
I:342 0
R:March
Z:Carl Allison
L:1/16
M:2/4
K:A
a>f | "A" e2>A2 e<dc>B | "A" A>a(g<a) "D" (f<a)"A"e>c | "A" A>AA>B "F#m" (c<e)f>e | "Bm"{d}c2B2 "E7" B2a>f |
"A" e2>A2 ed<cB | "A" A>a(g<a) "D" (a>g)"A"e>c | "F#m" A>AA>c "Bm" B>c"E7"f>e | "A" {d}c2"D"B2 "A" A<A :|
c>d | "A" e>fe>c A2a>g | "D" f<gf>e d2c>d | "A" e>fe>c "F#m" A>cf>e  | "Bm" {d}c2B2 "E7" B2c>d  |
"A" e>fe>c A2a>g | "D" f<af>e d2c>d | "F#m" e>Ad>c "Bm" B>c"E7"f>e | "A" {d}c2"D"A2 "A" A2c>d |
"A" e>fe>c A2a>g | "D" f<af>e d2c>d | "A" e>fe>c "F#m" A>cf>e | "Bm" {d}c2B2 "E7" B2c>d |
"A" c<e"D"d>f "A" c<eB>c | "A" A>ag<a "D" f<a"A"e>c | "F#m" A>AA>c "Bm" B>c"E7"f>e | "A" {d}c2"D"A2 "A" A<A :|
"A" A2(c>e) A2c2 | "A" e>Aa>e f>e(c>A) | "A" e>cA<c "F#m" A>ce>e | "Bm" {d}c2B2 "E7" B2a2 |
"A" A2c>e A2c2 | "A" e<Aa>e f>ec<A | "A" c<eA>c "Bm" B>cf>e | "A" {d}c2"D"A2 "A" A<A :|
"A" (f>g) | a>e(c<e) A>c(B<c) | "A" e>Aa>e f>e(c<A) | "A" a>ec<e "F#m" A>cf>e | "Bm7" {d}c2B2 "E7" B2f>g |
"A" a>ec<e A>cB<c | "A" e>Aa>e f>ec>A | "A" c<eA>c "Bm" B>c"E7"f>e | "A" {d}c2"D"A2 "A" A2f>g |
"A" a>ec<e A>cB<c | "A" e>Aa>e f>ec>A | "A" a>ec<e "F#m" A>cf>e | "Bm7" {d}c2B2 "E7" B2c>d |
"A" c<e"D"d>f "A" c<eB>c | "A" A>ag<a "D" f<a"A"e>c | "A" A>AA>B B>c"E7"f>e | "A" {d}c2"D"A2 "A" A<A |]

